symbols/web/fire_truck/materialsymbolssharp/fire_truck_wght100gradN25fill1_20px.svg

<svg xmlns="http://www.w3.org/2000/svg" height="20" width="20"><path d="M5.833 16.583q-.854 0-1.448-.604-.593-.604-.593-1.458H1.958V9.188h9.167V5.333h2.75v-.854h1.437v.854h1.417l1.333 4.063v5.125h-1.833q0 .854-.614 1.458-.615.604-1.448.604-.855 0-1.448-.604-.594-.604-.594-1.458H7.896q0 .854-.615 1.458-.614.604-1.448.604Zm0-.625q.605 0 1.032-.406.427-.406.427-1.01t-.427-1.032q-.427-.427-1.032-.427-.583 0-1.01.427-.427.428-.427 1.011 0 .604.416 1.021.417.416 1.021.416Zm8.334 0q.604 0 1.031-.406.427-.406.427-1.01t-.427-1.032q-.427-.427-1.031-.427-.584 0-1.011.427-.427.428-.427 1.011 0 .604.417 1.021.416.416 1.021.416Zm-2.438-6.77h5.625l-1.083-3.23h-4.542Zm-9.771-.896v-.604h.834v-1.73h-.834v-.625h7.604v.625h-.833v1.73h.833v.604Zm1.438-.604h2.062v-1.73H3.396Zm2.666 0h2.063v-1.73H6.062Zm5.063 2.104v4.104H7.792q-.188-.625-.719-1.031-.531-.407-1.24-.407-.687 0-1.208.407-.521.406-.708 1.031H2.562V9.792Zm.604 0h5.729v4.104h-1.333q-.187-.625-.719-1.031-.531-.407-1.239-.407-.688 0-1.209.407-.52.406-.708 1.031h-.521Z"/></svg>

<svg xmlns="http://www.w3.org/2000/svg" height="20" width="20"><path d="M5.833 16.583Q4.979 16.583 4.385 15.979Q3.792 15.375 3.792 14.521H1.958V9.188H11.125V5.333H13.875V4.479H15.312V5.333H16.729L18.062 9.396V14.521H16.229Q16.229 15.375 15.615 15.979Q15 16.583 14.167 16.583Q13.312 16.583 12.719 15.979Q12.125 15.375 12.125 14.521H7.896Q7.896 15.375 7.281 15.979Q6.667 16.583 5.833 16.583ZM5.833 15.958Q6.438 15.958 6.865 15.552Q7.292 15.146 7.292 14.542Q7.292 13.938 6.865 13.51Q6.438 13.083 5.833 13.083Q5.25 13.083 4.823 13.51Q4.396 13.938 4.396 14.521Q4.396 15.125 4.812 15.542Q5.229 15.958 5.833 15.958ZM14.167 15.958Q14.771 15.958 15.198 15.552Q15.625 15.146 15.625 14.542Q15.625 13.938 15.198 13.51Q14.771 13.083 14.167 13.083Q13.583 13.083 13.156 13.51Q12.729 13.938 12.729 14.521Q12.729 15.125 13.146 15.542Q13.562 15.958 14.167 15.958ZM11.729 9.188H17.354L16.271 5.958H11.729ZM1.958 8.292V7.688H2.792V5.958H1.958V5.333H9.562V5.958H8.729V7.688H9.562V8.292ZM3.396 7.688H5.458V5.958H3.396ZM6.062 7.688H8.125V5.958H6.062ZM11.125 9.792V13.896H7.792Q7.604 13.271 7.073 12.865Q6.542 12.458 5.833 12.458Q5.146 12.458 4.625 12.865Q4.104 13.271 3.917 13.896H2.562V9.792ZM11.729 9.792H17.458V13.896H16.125Q15.938 13.271 15.406 12.865Q14.875 12.458 14.167 12.458Q13.479 12.458 12.958 12.865Q12.438 13.271 12.25 13.896H11.729Z"/></svg>
